icons/op-installation-services-16.svg

<svg width="16" height="16" viewBox="0 0 16 16" fill="none" xmlns="http://www.w3.org/2000/svg">
<path d="M8 5.01279C7.86993 5.01279 7.7413 5.01844 7.61433 5.02948C7.59036 5.03156 7.54132 5.05431 7.522 5.1282L7.32681 5.87451C7.22782 6.25298 6.95603 6.52711 6.65347 6.67698C6.53632 6.735 6.4234 6.8004 6.3153 6.87258C6.034 7.0604 5.66032 7.15881 5.28286 7.05524L4.53813 6.85091C4.46459 6.83073 4.42029 6.86168 4.40641 6.88145C4.25889 7.09137 4.12937 7.31469 4.02002 7.5492C4.00999 7.57071 4.00506 7.6244 4.05941 7.6781L4.60961 8.22175C4.88747 8.4963 4.98931 8.86824 4.96786 9.20523C4.96375 9.27007 4.96165 9.33554 4.96165 9.40156C4.96165 9.46758 4.96375 9.53305 4.96786 9.59789C4.98931 9.93488 4.88747 10.2073 4.60961 10.4819H3.27683L3.89776 9.86094C3.93094 9.82815 3.96344 9.76159 3.95712 9.66219C3.95164 9.57595 3.94885 9.48904 3.94885 9.40156C3.94885 9.31407 3.95164 9.22716 3.95712 9.14093C3.96344 9.04152 3.93094 8.97496 3.89776 8.94218L3.34756 8.39853C3.02707 8.08186 2.88945 7.57724 3.10212 7.12117C3.23684 6.83226 3.39631 6.55735 3.57775 6.29914C3.86664 5.88804 4.3718 5.75505 4.80611 5.87421L5.55085 6.07855C5.59586 6.0909 5.66986 6.08573 5.7529 6.03029C5.89695 5.93411 6.04755 5.84688 6.20394 5.76942C6.2937 5.72496 6.33518 5.66334 6.34697 5.61825L6.54216 4.87193C6.6563 4.43553 7.0251 4.06409 7.52662 4.02049C7.68272 4.00692 7.84062 4 8 4C8.15939 4 8.31728 4.00692 8.47338 4.02049C8.9749 4.06408 9.3437 4.43553 9.45782 4.87193L9.65302 5.61822C9.66483 5.66332 9.70629 5.72494 9.79609 5.7694C9.95246 5.84686 10.1031 5.9341 10.2471 6.03028C10.3302 6.08572 10.4042 6.09089 10.4492 6.07854L11.1939 5.87421C11.6282 5.75505 12.1333 5.88803 12.4223 6.29914C12.6037 6.55734 12.7632 6.83225 12.8979 7.12116C13.1106 7.57723 12.9729 8.08185 12.6524 8.39852L12.1023 8.94214C12.0691 8.97492 12.0366 9.04149 12.0429 9.14089C12.0484 9.22714 12.0512 9.31406 12.0512 9.40156C12.0512 9.48906 12.0484 9.57598 12.0429 9.66222C12.0366 9.76163 12.0691 9.82819 12.1023 9.86098L12.7232 10.4819H11.3904C11.1126 10.2073 11.0108 9.93491 11.0322 9.59792C11.0363 9.53306 11.0384 9.46759 11.0384 9.40156C11.0384 9.33553 11.0363 9.27006 11.0322 9.2052C11.0108 8.86821 11.1126 8.49626 11.3904 8.22171L11.9406 7.6781C11.9949 7.62439 11.99 7.5707 11.98 7.54919C11.8706 7.31469 11.7411 7.09137 11.5936 6.88145C11.5797 6.86168 11.5354 6.83073 11.4619 6.85091L10.7172 7.05524C10.3397 7.1588 9.96604 7.06039 9.68475 6.87257C9.57665 6.80039 9.46369 6.73499 9.34654 6.67697C9.04397 6.5271 8.77218 6.25296 8.67319 5.87449L8.47801 5.1282C8.45868 5.05431 8.40964 5.03156 8.38567 5.02948C8.2587 5.01844 8.13007 5.01279 8 5.01279Z" fill="#24292F"/>
<path fill-rule="evenodd" clip-rule="evenodd" d="M8 7.37597C6.88131 7.37597 5.97442 8.28286 5.97442 9.40156C5.97442 9.79873 6.08873 10.1692 6.28624 10.4819H9.71376C9.91128 10.1692 10.0256 9.79873 10.0256 9.40156C10.0256 8.28286 9.1187 7.37597 8 7.37597ZM9.01279 9.40155C9.01279 9.9609 8.55935 10.4143 8 10.4143C7.44065 10.4143 6.98721 9.9609 6.98721 9.40155C6.98721 8.8422 7.44065 8.38876 8 8.38876C8.55935 8.38876 9.01279 8.8422 9.01279 9.40155Z" fill="#24292F"/>
<path fill-rule="evenodd" clip-rule="evenodd" d="M16 2.75V10.25C16 11.2165 15.2165 12 14.25 12H10.523C10.6221 13.041 11.0432 13.8724 11.8151 14.7568C12.0085 14.9784 12.0545 15.2926 11.9328 15.5604C11.8111 15.8281 11.5441 16 11.25 16H4.75C4.45589 16 4.18892 15.8281 4.06722 15.5604C3.94552 15.2926 3.99154 14.9784 4.18493 14.7568C4.95683 13.8724 5.37792 13.041 5.47702 12H1.75C0.783502 12 0 11.2165 0 10.25V2.75C0 1.7835 0.783502 1 1.75 1H14.25C15.2165 1 16 1.7835 16 2.75ZM14.5 10.25V2.75C14.5 2.61193 14.3881 2.5 14.25 2.5H1.75C1.61193 2.5 1.5 2.61193 1.5 2.75V10.25C1.5 10.3881 1.61193 10.5 1.75 10.5H14.25C14.3881 10.5 14.5 10.3881 14.5 10.25ZM6.98217 12H9.01783C9.08609 12.9377 9.34901 13.7473 9.78268 14.5H6.21732C6.65098 13.7473 6.9139 12.9377 6.98217 12Z" fill="#24292F"/>
</svg>

<svg xmlns="http://www.w3.org/2000/svg" width="16" height="16" viewBox="0 0 16 16"><path d="M8 5.013c-.13 0-.259.005-.386.016-.024.003-.073.025-.092.099l-.195.747a1.264 1.264 0 0 1-.674.802c-.117.058-.23.123-.338.196a1.263 1.263 0 0 1-1.032.182l-.745-.204c-.073-.02-.118.011-.132.03-.147.21-.277.434-.386.668-.01.022-.015.075.039.129l.551.544c.277.274.379.646.358.983a3.215 3.215 0 0 0 0 .393c.021.337-.081.609-.358.884H3.277l.621-.621c.033-.033.065-.099.059-.199a4.486 4.486 0 0 1 0-.521c.006-.099-.026-.166-.059-.199l-.55-.543a1.128 1.128 0 0 1-.246-1.278c.135-.289.294-.564.476-.822a1.13 1.13 0 0 1 1.228-.425l.745.205c.045.012.119.007.202-.049.144-.096.295-.183.451-.261.09-.044.131-.106.143-.151l.195-.746a1.13 1.13 0 0 1 .985-.852 5.699 5.699 0 0 1 .946 0c.502.044.871.416.985.852l.195.746c.012.045.053.107.143.151.156.078.307.165.451.261.083.056.157.061.202.049l.745-.205a1.13 1.13 0 0 1 1.228.425c.182.258.341.533.476.822.213.456.075.961-.246 1.278l-.55.543c-.033.033-.065.099-.059.199a4.494 4.494 0 0 1 0 .521c-.006.1.026.166.059.199l.621.621H11.39c-.277-.275-.379-.547-.358-.884a3.182 3.182 0 0 0 0-.393 1.265 1.265 0 0 1 .358-.983l.551-.544c.054-.054.049-.107.039-.129a4.426 4.426 0 0 0-.386-.668c-.014-.019-.059-.05-.132-.03l-.745.204a1.263 1.263 0 0 1-1.032-.182 2.913 2.913 0 0 0-.338-.196 1.263 1.263 0 0 1-.674-.803l-.195-.746c-.019-.074-.068-.096-.092-.099A4.478 4.478 0 0 0 8 5.013Z"/><path d="M8 7.376a2.026 2.026 0 0 1 1.714 3.106H6.286A2.026 2.026 0 0 1 8 7.376Zm1.013 2.026a1.013 1.013 0 1 0-2.026 0 1.013 1.013 0 0 0 2.026 0Z"/><path d="M16 2.75v7.5A1.75 1.75 0 0 1 14.25 12h-3.727c.099 1.041.52 1.872 1.292 2.757A.75.75 0 0 1 11.25 16h-6.5a.75.75 0 0 1-.565-1.243c.772-.885 1.193-1.716 1.292-2.757H1.75A1.75 1.75 0 0 1 0 10.25v-7.5C0 1.783.784 1 1.75 1h12.5c.967 0 1.75.783 1.75 1.75Zm-1.5 7.5v-7.5a.25.25 0 0 0-.25-.25H1.75a.25.25 0 0 0-.25.25v7.5c0 .138.112.25.25.25h12.5a.25.25 0 0 0 .25-.25ZM6.982 12a5.712 5.712 0 0 1-.765 2.5h3.566a5.712 5.712 0 0 1-.765-2.5Z"/></svg>
